X: 12503
T: Farewell To Fiunary
R: waltz
M: 3/4
K: Cmajor
c4 e2|g4 e2|d4 c2|B4 d2|e4 A2|A4 B2|A4 G2|E4 G2|
A4 B2|c4 d2|e6|g4 g2|a4 a2|g4 e2|d6|c4:|

